static/assets/template/assets/img/icons/clothing/shirt.svg

<svg viewBox="0 0 119.76 110" xmlns="http://www.w3.org/2000/svg"><path d="m113.9 73.21-15.9 5.62 2 5.17 15.81-5.65zm-22.08-61.21-14-3.74a2 2 0 0 1 -.46 1.05l-10.36 12.01a2 2 0 0 1 -1.49.68h-.3a2 2 0 0 1 -1.51-1.18l-2.89-6.82h-1.86l-2.95 6.8a2 2 0 0 1 -1.49 1.2h-.3a2 2 0 0 1 -1.49-.68l-10.35-12a2 2 0 0 1 -.46-1.05l-13.97 3.73-21.41 59.34 15.89 5.66 7.52-20.28v45.28c0 2 11.32 3.7 26 4l4-6 4 6c14.65-.26 26-1.93 26-4v-45.32l7.4 20.32 15.89-5.62zm-16-4.27-.7-.19-1.02-3.54-3 2.47-1.23 1-7.18 5.88 2.86 6.65 10.36-12zm-25.92-.26-1.23-1-3.01-2.47-1 3.55-.7.19-.11.26 10.36 12 2.87-6.65zm-45.9 70.91 15.8 5.62 1.93-5.2-15.87-5.59zm115.39 1.71a4 4 0 0 1 -2.27 2.06l-15.82 5.65a3.94 3.94 0 0 1 -1.3.2 4 4 0 0 1 -3.74-2.61l-2.41-6.48v23.09c0 4.95-6.55 5.94-10.89 6.6a152.73 152.73 0 0 1 -19 1.36h-.07a4 4 0 0 1 -3.33-1.78l-.64-1-.64 1a4 4 0 0 1 -3.37 1.82h-.07a152.73 152.73 0 0 1 -19-1.36c-4.34-.64-10.89-1.64-10.89-6.64v-23.06l-2.41 6.48a4 4 0 0 1 -3.74 2.58 3.94 3.94 0 0 1 -1.34-.23l-15.81-5.62a4 4 0 0 1 -2.41-5.15l24-66.38a4 4 0 0 1 2.73-2.5l14.5-3.88.41-1.38a4 4 0 0 1 2.59-2.68 4.53 4.53 0 0 1 1-.17h.17a4 4 0 0 1 2.52.9l3 2.47 1.22 1 6.93 5.62h1.14l6.89-5.63 1.22-1 3-2.47a4 4 0 0 1 2.54-.9h.17a4.53 4.53 0 0 1 1 .17 4 4 0 0 1 2.64 2.7l.41 1.38 14.5 3.88a4 4 0 0 1 2.73 2.5l23.97 66.37a4 4 0 0 1 -.14 3.09z" fill-rule="evenodd"/></svg>

<svg xmlns="http://www.w3.org/2000/svg" viewBox="0 0 119.76 110"><defs><style>.cls-1{fill-rule:evenodd;}</style></defs><title>shirt</title><g id="Layer_2" data-name="Layer 2"><g id="Layer"><path class="cls-1" d="M113.9,73.21,98,78.83,100,84l15.81-5.65ZM91.82,12l-14-3.74a2,2,0,0,1-.46,1.05L67,21.32a2,2,0,0,1-1.49.68l-.3,0a2,2,0,0,1-1.51-1.18L60.81,14H58.95L56,20.8A2,2,0,0,1,54.51,22l-.3,0a2,2,0,0,1-1.49-.68l-10.35-12a2,2,0,0,1-.46-1.05L27.94,12,6.53,71.34,22.42,77l7.52-20.28V102c0,2,11.32,3.7,26,4l4-6,4,6c14.65-.26,26-1.93,26-4V56.68L97.34,77l15.89-5.62Zm-16-4.27-.7-.19L74.1,4l-3,2.47-1.23,1-7.18,5.88L65.55,20,75.91,8ZM49.9,7.47l-1.23-1L45.66,4l-1,3.55-.7.19L43.85,8,54.21,20l2.87-6.65ZM4,78.38,19.8,84l1.93-5.2L5.86,73.21Zm115.39,1.71a4,4,0,0,1-2.27,2.06L101.3,87.8A3.94,3.94,0,0,1,100,88a4,4,0,0,1-3.74-2.61l-2.41-6.48V102c0,4.95-6.55,5.94-10.89,6.6a152.73,152.73,0,0,1-19,1.36h-.07a4,4,0,0,1-3.33-1.78l-.64-1-.64,1A4,4,0,0,1,55.91,110h-.07a152.73,152.73,0,0,1-19-1.36C32.5,108,25.95,107,25.95,102V78.94l-2.41,6.48A4,4,0,0,1,19.8,88a3.94,3.94,0,0,1-1.34-.23L2.65,82.15A4,4,0,0,1,.24,77l24-66.38a4,4,0,0,1,2.73-2.5l14.5-3.88.41-1.38A4,4,0,0,1,44.47.18a4.53,4.53,0,0,1,1-.17h.17a4,4,0,0,1,2.52.9l3,2.47,1.22,1L59.31,10h1.14l6.89-5.63,1.22-1,3-2.47A4,4,0,0,1,74.1,0h.17a4.53,4.53,0,0,1,1,.17,4,4,0,0,1,2.64,2.7l.41,1.38,14.5,3.88a4,4,0,0,1,2.73,2.5L119.52,77A4,4,0,0,1,119.38,80.09Z"/></g></g></svg>
